X:246
T:Lowther Hunt. VWMLa.246, The
%%VWML:Anon2-3049-p163-0
F:http://www.vwml.org/record/Anon2/3049/p163
S:Anon. MS, late 18thC, Vaughan Williams Mem. Library
O:England;Yorkshire
Z:vmp/efdss.Simon Wilson. Reviewed PJH 2008.
M:2/4
L:1/8
Q:1/4=120
K:D
FAFA|G>BB2|ceec|dffd|\
FAFA|G>BB2|ceec|d2d2:|
fdBf|ecAe|dBBd|c>BA2|\
fdBf|ecAa|edcB|!D.C.!B2A2|]
